X: 3
P: The Mill, Mill O
C: Digital Tradition website
C: from MacColl Folk Songs and Ballads of Scotland
C: arr. T. Traub 12/18/2001
R: Strathspey
M: 4/4
K: G
L: 1/8
|: "D"G>A|"G"B2 D>E D3 G|"C"E>D E<G "D"A2 G>A|"G"B2 D2 "C"c>B A<G|"C"E3 F "G"G2 :|
w:As * I came * doon yon wa-*ter-*side, and* by yon Shil-*lin'* Hill,*O,
w:* * Then I* spied a bon-*ny* lass, a* lass that/I loed*right* weel,*O.
D2|"G"GABc "G/B"d2 dd|"Am"c>B A<G "D"A2 DD|"G"GABc d>e dc|"Am"B3 c "D"d3 D|
w:The mill,* mill,* O, and the kill,* kill* O, an' the cog-* gin' o' Peg-*gy's* wheel,* O, The
"G"G>ABc "Bm"d2 cd|"C"e>d c<B "D"A2 G>A|"G"B2 D2 "C"c>B A<G|"C"E3 F "G"G2 |]
w:sack* and the sieve, a'* she* did* leave, an'* danc'd the mil-* ler's* reel, * O.
